X:69
T:Hammer the Tin* (j)
B:NFID.100c ("untitled jig")
069hamm_t
S:SD
L:1/8
M:6/8
R:jig
Q:320
K:D=C
A2G|:FED EFG|A2G FED|f2d efd|cAG FED|
F2D EFG|A2G FED|f2d cAG|1 Add d2g:|2 fad fad||
faa agf|egc egc|egg gfe|fef gfe|
aba gfe|fed cAG|1 Add d2g:|2 Add d2c||

%%%

